_uploads/rise-logo.svg

<svg width="81" height="104" xmlns="http://www.w3.org/2000/svg"><g transform="translate(0 -1)" fill="none" fill-rule="evenodd"><path d="M29.514 1.624c2.217 0 4.212.358 5.99 1.073 1.776.716 3.299 1.696 4.569 2.942a12.824 12.824 0 0 1 2.908 4.328c.669 1.638 1.003 3.404 1.003 5.296 0 2.907-.611 5.424-1.834 7.547-1.224 2.122-3.22 3.738-5.988 4.845v.14c1.338.369 2.445.934 3.322 1.696a9.404 9.404 0 0 1 2.147 2.699 12.579 12.579 0 0 1 1.212 3.427c.252 1.246.426 2.493.518 3.739.045.786.094 1.708.139 2.77.046 1.062.127 2.145.242 3.254.113 1.108.299 2.158.554 3.15.254.993.633 1.835 1.141 2.527H34.569c-.6-1.569-.969-3.438-1.108-5.608a83.402 83.402 0 0 0-.623-6.231c-.37-2.585-1.154-4.477-2.354-5.678-1.201-1.199-3.162-1.8-5.885-1.8h-10.87v19.317H2.86V1.624h26.654zm-3.876 22.362c2.493 0 4.362-.554 5.608-1.661 1.246-1.108 1.869-2.909 1.869-5.401 0-2.398-.623-4.141-1.869-5.227-1.246-1.084-3.115-1.627-5.608-1.627H13.729v13.916h11.909z" fill="#000"/><path fill="#000" d="M50.56 51.057L61.429 51.057 61.429 1.625 50.56 1.625z"/><path fill="#BEBC00" d="M67.878 51.001L80.633 51.001 80.633 38.246 67.878 38.246z"/><path d="M11.762 91.571c.599 1.155 1.396 2.089 2.389 2.804.992.717 2.156 1.248 3.496 1.594 1.338.346 2.723.518 4.154.518.969 0 2.008-.079 3.115-.243a10.775 10.775 0 0 0 3.116-.934 6.789 6.789 0 0 0 2.423-1.905c.646-.805.969-1.834.969-3.079 0-1.34-.427-2.424-1.281-3.255-.854-.831-1.973-1.524-3.357-2.077-1.385-.554-2.955-1.039-4.708-1.453a128.536 128.536 0 0 1-5.331-1.386 46.773 46.773 0 0 1-5.4-1.696c-1.755-.668-3.324-1.533-4.708-2.596a12.197 12.197 0 0 1-3.358-3.98C2.426 72.291 2 70.363 2 68.103c0-2.539.542-4.745 1.627-6.614a14.754 14.754 0 0 1 4.258-4.673c1.754-1.246 3.738-2.169 5.954-2.77a25.414 25.414 0 0 1 6.646-.899c2.585 0 5.065.29 7.443.866 2.376.577 4.489 1.512 6.335 2.803a14.21 14.21 0 0 1 4.396 4.95c1.084 2.008 1.627 4.443 1.627 7.303H29.763c-.093-1.474-.405-2.698-.935-3.668-.531-.967-1.235-1.731-2.112-2.284-.877-.554-1.881-.945-3.011-1.177-1.132-.231-2.366-.346-3.704-.346-.877 0-1.755.094-2.631.277a7.063 7.063 0 0 0-2.389.969 5.986 5.986 0 0 0-1.766 1.731c-.461.692-.692 1.569-.692 2.632 0 .967.185 1.754.555 2.353.368.599 1.095 1.153 2.18 1.662 1.084.508 2.585 1.014 4.5 1.522a758.04 758.04 0 0 0 7.512 1.94c.923.184 2.204.518 3.843 1.003 1.638.485 3.264 1.258 4.88 2.319 1.616 1.063 3.013 2.481 4.19 4.258 1.177 1.777 1.765 4.05 1.765 6.818 0 2.264-.439 4.363-1.315 6.301-.878 1.938-2.181 3.613-3.913 5.02-1.73 1.409-3.877 2.504-6.438 3.289-2.562.784-5.528 1.176-8.897 1.176-2.724 0-5.365-.336-7.926-1.003-2.563-.67-4.824-1.719-6.786-3.15C4.711 99.279 3.154 97.457 2 95.24.846 93.026.292 90.396.338 87.349h10.524c0 1.659.3 3.069.9 4.222" fill="#000"/><path fill="#000" d="M80.614 54.324L80.614 63.463 56.377 63.463 56.377 74.055 79.143 74.055 79.143 82.501 56.377 82.501 56.377 94.618 80.583 94.618 80.583 103.756 45.506 103.756 45.506 54.324 80.614 54.324"/></g></svg>

<?xml version="1.0" encoding="UTF-8"?>
<svg width="81px" height="104px" viewBox="0 0 81 104" version="1.1" xmlns="http://www.w3.org/2000/svg" xmlns:xlink="http://www.w3.org/1999/xlink">
    <!-- Generator: Sketch 47.1 (45422) - http://www.bohemiancoding.com/sketch -->
    <title>rise-logo</title>
    <desc>Created with Sketch.</desc>
    <defs></defs>
    <g id="Page-1" stroke="none" stroke-width="1" fill="none" fill-rule="evenodd">
        <g id="rise-logo" transform="translate(0.000000, -1.000000)">
            <path d="M29.514,1.624 C31.731,1.624 33.726,1.982 35.504,2.697 C37.28,3.413 38.803,4.393 40.073,5.639 C41.341,6.886 42.31,8.328 42.981,9.967 C43.65,11.605 43.984,13.371 43.984,15.263 C43.984,18.17 43.373,20.687 42.15,22.81 C40.926,24.932 38.93,26.548 36.162,27.655 L36.162,27.795 C37.5,28.164 38.607,28.729 39.484,29.491 C40.361,30.252 41.077,31.152 41.631,32.19 C42.185,33.229 42.589,34.371 42.843,35.617 C43.095,36.863 43.269,38.11 43.361,39.356 C43.406,40.142 43.455,41.064 43.5,42.126 C43.546,43.188 43.627,44.271 43.742,45.38 C43.855,46.488 44.041,47.538 44.296,48.53 C44.55,49.523 44.929,50.365 45.437,51.057 L34.569,51.057 C33.969,49.488 33.6,47.619 33.461,45.449 C33.323,43.279 33.115,41.203 32.838,39.218 C32.468,36.633 31.684,34.741 30.484,33.54 C29.283,32.341 27.322,31.74 24.599,31.74 L13.729,31.74 L13.729,51.057 L2.86,51.057 L2.86,1.624 L29.514,1.624 Z M25.638,23.986 C28.131,23.986 30,23.432 31.246,22.325 C32.492,21.217 33.115,19.416 33.115,16.924 C33.115,14.526 32.492,12.783 31.246,11.697 C30,10.613 28.131,10.07 25.638,10.07 L13.729,10.07 L13.729,23.986 L25.638,23.986 L25.638,23.986 Z" id="Fill-1" fill="#000000"></path>
            <polygon id="Fill-3" fill="#000000" points="50.56 51.057 61.429 51.057 61.429 1.625 50.56 1.625"></polygon>
            <polygon id="Fill-4" fill="#BEBC00" points="67.878 51.001 80.633 51.001 80.633 38.246 67.878 38.246"></polygon>
            <path d="M11.762,91.571 C12.361,92.726 13.158,93.66 14.151,94.375 C15.143,95.092 16.307,95.623 17.647,95.969 C18.985,96.315 20.37,96.487 21.801,96.487 C22.77,96.487 23.809,96.408 24.916,96.244 C26.024,96.084 27.063,95.772 28.032,95.31 C29.001,94.85 29.808,94.213 30.455,93.405 C31.101,92.6 31.424,91.571 31.424,90.326 C31.424,88.986 30.997,87.902 30.143,87.071 C29.289,86.24 28.17,85.547 26.786,84.994 C25.401,84.44 23.831,83.955 22.078,83.541 C20.323,83.125 18.547,82.664 16.747,82.155 C14.9,81.695 13.1,81.129 11.347,80.459 C9.592,79.791 8.023,78.926 6.639,77.863 C5.254,76.802 4.134,75.476 3.281,73.883 C2.426,72.291 2,70.363 2,68.103 C2,65.564 2.542,63.358 3.627,61.489 C4.711,59.621 6.13,58.064 7.885,56.816 C9.639,55.57 11.623,54.647 13.839,54.046 C16.055,53.448 18.27,53.147 20.485,53.147 C23.07,53.147 25.55,53.437 27.928,54.013 C30.304,54.59 32.417,55.525 34.263,56.816 C36.109,58.109 37.574,59.76 38.659,61.766 C39.743,63.774 40.286,66.209 40.286,69.069 L29.763,69.069 C29.67,67.595 29.358,66.371 28.828,65.401 C28.297,64.434 27.593,63.67 26.716,63.117 C25.839,62.563 24.835,62.172 23.705,61.94 C22.573,61.709 21.339,61.594 20.001,61.594 C19.124,61.594 18.246,61.688 17.37,61.871 C16.493,62.056 15.697,62.379 14.981,62.84 C14.265,63.301 13.677,63.877 13.215,64.571 C12.754,65.263 12.523,66.14 12.523,67.203 C12.523,68.17 12.708,68.957 13.078,69.556 C13.446,70.155 14.173,70.709 15.258,71.218 C16.342,71.726 17.843,72.232 19.758,72.74 C21.673,73.248 24.178,73.895 27.27,74.68 C28.193,74.864 29.474,75.198 31.113,75.683 C32.751,76.168 34.377,76.941 35.993,78.002 C37.609,79.065 39.006,80.483 40.183,82.26 C41.36,84.037 41.948,86.31 41.948,89.078 C41.948,91.342 41.509,93.441 40.633,95.379 C39.755,97.317 38.452,98.992 36.72,100.399 C34.99,101.808 32.843,102.903 30.282,103.688 C27.72,104.472 24.754,104.864 21.385,104.864 C18.661,104.864 16.02,104.528 13.459,103.861 C10.896,103.191 8.635,102.142 6.673,100.711 C4.711,99.279 3.154,97.457 2,95.24 C0.846,93.026 0.292,90.396 0.338,87.349 L10.862,87.349 C10.862,89.008 11.162,90.418 11.762,91.571" id="Fill-5" fill="#000000"></path>
            <polyline id="Fill-6" fill="#000000" points="80.614 54.324 80.614 63.463 56.377 63.463 56.377 74.055 79.143 74.055 79.143 82.501 56.377 82.501 56.377 94.618 80.583 94.618 80.583 103.756 45.506 103.756 45.506 54.324 80.614 54.324"></polyline>
        </g>
    </g>
</svg>
